svg/furkot/freepik/deal.svg

<svg viewBox="0 0 512 512" xmlns="http://www.w3.org/2000/svg"><path d="m197.025 87.571h131.338l34-67.982c5.367-10.771-.076-19.589-12.117-19.589h-175.104c-12.042 0-17.484 8.799-12.117 19.589zm30.474 175.161c0 11.321 7.623 20.745 22.869 28.293v-52.13c-15.246 2.75-22.869 10.714-22.869 23.837zm46.876 83.892v49.835c15.664-2.428 23.514-10.259 23.514-23.514 0-10.714-7.85-19.494-23.514-26.321z"/><path d="m393.633 131.356h-261.897c-53.324 39.917-87.951 103.405-87.951 175.123 0 120.908 97.963 218.909 218.909 218.909s218.908-97.982 218.908-218.909c0-71.736-34.626-135.206-87.969-175.123zm-69.404 283.288c-11.644 11.131-28.255 17.901-49.854 20.309v35.67h-24.007v-34.702c-22.263-.114-43.008-5.139-62.142-15.114v-45.568c6.334 5.139 15.834 9.899 28.445 14.298 12.591 4.381 23.817 6.903 33.697 7.566v-59.866c-25.657-9.538-43.179-19.873-52.546-31.023-9.368-11.112-14.052-24.671-14.052-40.695 0-17.199 6.087-31.895 18.261-44.013 12.175-12.117 28.274-19.152 48.356-21.143v-30.569h24.026v29.943c23.154 1.081 40.391 4.816 51.769 11.188v44.411c-15.341-9.329-32.616-15.018-51.769-17.104v62.331c24.026 8.704 41.226 18.565 51.636 29.696 10.449 11.131 15.626 24.576 15.626 40.372-.038 18.224-5.86 32.882-17.446 44.013z"/></svg>

<svg xmlns="http://www.w3.org/2000/svg" viewBox="0 0 512 512"><path d="M197.025 87.571H328.363L362.363 19.589C367.73 8.818 362.287 0 350.246 0H175.142C163.1 0 157.658 8.799 163.025 19.589L197.025 87.571ZM227.499 262.732C227.499 274.053 235.122 283.477 250.368 291.025V238.895C235.122 241.645 227.499 249.609 227.499 262.732ZM274.375 346.624V396.459C290.039 394.031 297.889 386.2 297.889 372.945 297.889 362.231 290.039 353.451 274.375 346.624Z"/><path d="M393.633 131.356H131.736C78.412 171.273 43.785 234.761 43.785 306.479 43.785 427.387 141.748 525.388 262.694 525.388S481.602 427.406 481.602 306.479C481.602 234.743 446.976 171.273 393.633 131.356ZM324.229 414.644C312.585 425.775 295.974 432.545 274.375 434.953V470.623H250.368V435.921C228.105 435.807 207.36 430.782 188.226 420.807V375.239C194.56 380.378 204.06 385.138 216.671 389.537 229.262 393.918 240.488 396.44 250.368 397.103V337.237C224.711 327.699 207.189 317.364 197.822 306.214 188.454 295.102 183.77 281.543 183.77 265.519 183.77 248.32 189.857 233.624 202.031 221.506 214.206 209.389 230.305 202.354 250.387 200.363V169.794H274.413V199.737C297.567 200.818 314.804 204.553 326.182 210.925V255.336C310.841 246.007 293.566 240.318 274.413 238.232V300.563C298.439 309.267 315.639 319.128 326.049 330.259 336.498 341.39 341.675 354.835 341.675 370.631 341.637 388.855 335.815 403.513 324.229 414.644Z"/></svg>
